X:220
T: Wallfahrtsgesang
N: A0573
O: Europa, Mitteleuropa, Deutschland
N: Muenchner Gsgb 1586 fol. 70b
R: Romanze, Ballade, Lied, religioeses Lied
M: 4/2
L: 1/4
K: G
G2 | G2G2_B2B2 | G4=F2
F2 | _B2B2c2c2 | d4z2
c2 | d2ddd2c2 | d4_B2
c2 | d2d2c2c2 | _B4z2
B2 | c2_B2c2c2 | d4d2
_B2 | c3c_B2B2 | G4=F4z2
F2 | c2_B2c2c2 | d4d2
_B2 | c2_B2A2G2 | c4d4
_BBB2A4 | G6

